**harm	**harte	**timestamp	**phrase	**leadinstrument	**kern
*M4/4	*M4/4	*	*	*	*
*d:	*d:	*	*	*	*d:
1r;	N	0	.	r	1r;
=1	=1	=1	=1	=1	=1
*>A_intro	*>A_intro	*>A_intro	*>A_intro	*>A_intro	*>A_intro
1i	D:min	0.209	newline	guitar	1D 1f 1a
=2	=2	=2	=2	=2	=2
1i	D:min	2.472	.	guitar	1D 1f 1a
=3	=3	=3	=3	=3	=3
1i	D:min	4.735	.	guitar	1D 1f 1a
=4	=4	=4	=4	=4	=4
1i	D:min	6.998	.	guitar	1D 1f 1a
=5	=5	=5	=5	=5	=5
1i	D:min	9.261	newline	guitar	1D 1f 1a
=6	=6	=6	=6	=6	=6
1i	D:min	11.654	.	guitar	1D 1f 1a
=7	=7	=7	=7	=7	=7
1i	D:min	14.046	.	guitar	1D 1f 1a
=8	=8	=8	=8	=8	=8
1i	D:min	16.439	.	guitar	1D 1f 1a
=9	=9	=9	=9	=9	=9
*>B_chorus	*>B_chorus	*>B_chorus	*>B_chorus	*>B_chorus	*>B_chorus
1IV	G:maj	18.831	newline	voice	1G 1b 1dd
=10	=10	=10	=10	=10	=10
1-III	F:maj	21.17	.	voice	1F- 1a- 1cc-
=11	=11	=11	=11	=11	=11
1IV	G:maj	23.509	.	voice	1G 1b 1dd
=12	=12	=12	=12	=12	=12
1-III	F:maj	25.847	.	voice	1F- 1a- 1cc-
=13	=13	=13	=13	=13	=13
1IV	G:maj	28.186	newline	voice	1G 1b 1dd
=14	=14	=14	=14	=14	=14
1-III	F:maj	30.506	.	voice	1F- 1a- 1cc-
=15	=15	=15	=15	=15	=15
2IV	G:maj	32.825	.	voice	2G 2b 2dd
2V	A:maj	33.985	.	voice	2A 2cc# 2ee
=16	=16	=16	=16	=16	=16
1-III	F:maj	35.145	.	voice	1F- 1a- 1cc-
=17	=17	=17	=17	=17	=17
*>B_chorus	*>B_chorus	*>B_chorus	*>B_chorus	*>B_chorus	*>B_chorus
1IV	G:maj	37.465	newline	voice	1G 1b 1dd
=18	=18	=18	=18	=18	=18
1-III	F:maj	39.791	.	voice	1F- 1a- 1cc-
=19	=19	=19	=19	=19	=19
1IV	G:maj	42.117	.	voice	1G 1b 1dd
=20	=20	=20	=20	=20	=20
1-III	F:maj	44.443	.	voice	1F- 1a- 1cc-
=21	=21	=21	=21	=21	=21
1IV	G:maj	46.77	newline	voice	1G 1b 1dd
=22	=22	=22	=22	=22	=22
1-III	F:maj	49.096	.	voice	1F- 1a- 1cc-
=23	=23	=23	=23	=23	=23
2IV	G:maj	51.422	.	voice	2G 2b 2dd
2V	A:maj	52.585	.	voice	2A 2cc# 2ee
=24	=24	=24	=24	=24	=24
1-III	F:maj	53.748	.	voice	1F- 1a- 1cc-
=25	=25	=25	=25	=25	=25
*>C_verse	*>C_verse	*>C_verse	*>C_verse	*>C_verse	*>C_verse
1iv	G:sus4	56.074	newline	voice	1G 1b- 1dd
=26	=26	=26	=26	=26	=26
1-III	F:sus4	58.406	.	voice	1F- 1a- 1cc-
=27	=27	=27	=27	=27	=27
1iv	G:sus4	60.738	.	voice	1G 1b- 1dd
=28	=28	=28	=28	=28	=28
1-III	F:sus4	63.071	.	voice	1F- 1a- 1cc-
=29	=29	=29	=29	=29	=29
1iv	G:sus4	65.403	newline	voice	1G 1b- 1dd
=30	=30	=30	=30	=30	=30
1-III	F:sus4	67.73	.	voice	1F- 1a- 1cc-
=31	=31	=31	=31	=31	=31
1iv	G:sus4	70.058	.	voice	1G 1b- 1dd
=32	=32	=32	=32	=32	=32
1-III	F:sus4	72.385	.	voice	1F- 1a- 1cc-
=33	=33	=33	=33	=33	=33
*>B_chorus	*>B_chorus	*>B_chorus	*>B_chorus	*>B_chorus	*>B_chorus
1IV	G:maj	74.713	newline	voice	1G 1b 1dd
=34	=34	=34	=34	=34	=34
1-III	F:maj	77.038	.	voice	1F- 1a- 1cc-
=35	=35	=35	=35	=35	=35
1IV	G:maj	79.362	.	voice	1G 1b 1dd
=36	=36	=36	=36	=36	=36
1-III	F:maj	81.687	.	voice	1F- 1a- 1cc-
=37	=37	=37	=37	=37	=37
1IV	G:maj	84.012	newline	voice	1G 1b 1dd
=38	=38	=38	=38	=38	=38
1-III	F:maj	86.316	.	voice	1F- 1a- 1cc-
=39	=39	=39	=39	=39	=39
2IV	G:maj	88.62	.	voice	2G 2b 2dd
2V	A:maj	89.772	.	voice	2A 2cc# 2ee
=40	=40	=40	=40	=40	=40
1-III	F:maj	90.924	.	voice	1F- 1a- 1cc-
=41	=41	=41	=41	=41	=41
*>C_verse	*>C_verse	*>C_verse	*>C_verse	*>C_verse	*>C_verse
1iv	G:sus4	93.228	newline	voice	1G 1b- 1dd
=42	=42	=42	=42	=42	=42
1-III	F:sus4	95.543	.	voice	1F- 1a- 1cc-
=43	=43	=43	=43	=43	=43
1iv	G:sus4	97.857	.	voice	1G 1b- 1dd
=44	=44	=44	=44	=44	=44
1-III	F:sus4	100.172	.	voice	1F- 1a- 1cc-
=45	=45	=45	=45	=45	=45
1iv	G:sus4	102.486	newline	voice	1G 1b- 1dd
=46	=46	=46	=46	=46	=46
1-III	F:sus4	104.834	.	voice	1F- 1a- 1cc-
=47	=47	=47	=47	=47	=47
1iv	G:sus4	107.182	.	voice	1G 1b- 1dd
=48	=48	=48	=48	=48	=48
1-III	F:sus4	109.53	.	voice	1F- 1a- 1cc-
=49	=49	=49	=49	=49	=49
*>B_instrumental	*>B_instrumental	*>B_instrumental	*>B_instrumental	*>B_instrumental	*>B_instrumental
1IV	G:maj	111.878	newline	synthesizer	1G 1b 1dd
=50	=50	=50	=50	=50	=50
1-III	F:maj	114.211	.	synthesizer	1F- 1a- 1cc-
=51	=51	=51	=51	=51	=51
1IV	G:maj	116.544	.	synthesizer	1G 1b 1dd
=52	=52	=52	=52	=52	=52
1-III	F:maj	118.877	.	synthesizer	1F- 1a- 1cc-
=53	=53	=53	=53	=53	=53
1IV	G:maj	121.209	newline	synthesizer	1G 1b 1dd
=54	=54	=54	=54	=54	=54
1-III	F:maj	123.529	.	synthesizer	1F- 1a- 1cc-
=55	=55	=55	=55	=55	=55
2IV	G:maj	125.849	.	synthesizer	2G 2b 2dd
2V	A:maj	127.009	.	synthesizer	2A 2cc# 2ee
=56	=56	=56	=56	=56	=56
1-III	F:maj	128.168	.	synthesizer	1F- 1a- 1cc-
=57	=57	=57	=57	=57	=57
*>B_chorus	*>B_chorus	*>B_chorus	*>B_chorus	*>B_chorus	*>B_chorus
1IV	G:maj	130.488	newline	voice	1G 1b 1dd
=58	=58	=58	=58	=58	=58
1-III	F:maj	132.822	.	voice	1F- 1a- 1cc-
=59	=59	=59	=59	=59	=59
1IV	G:maj	135.156	.	voice	1G 1b 1dd
=60	=60	=60	=60	=60	=60
1-III	F:maj	137.489	.	voice	1F- 1a- 1cc-
=61	=61	=61	=61	=61	=61
1IV	G:maj	139.823	newline	voice	1G 1b 1dd
=62	=62	=62	=62	=62	=62
1-III	F:maj	142.154	.	voice	1F- 1a- 1cc-
=63	=63	=63	=63	=63	=63
2IV	G:maj	144.484	.	voice	2G 2b 2dd
2V	A:maj	145.65	.	voice	2A 2cc# 2ee
=64	=64	=64	=64	=64	=64
1-III	F:maj	146.815	.	voice	1F- 1a- 1cc-
=65	=65	=65	=65	=65	=65
*>C_verse	*>C_verse	*>C_verse	*>C_verse	*>C_verse	*>C_verse
1iv	G:sus4	149.146	newline	voice	1G 1b- 1dd
=66	=66	=66	=66	=66	=66
1-III	F:sus4	151.471	.	voice	1F- 1a- 1cc-
=67	=67	=67	=67	=67	=67
1iv	G:sus4	153.796	.	voice	1G 1b- 1dd
=68	=68	=68	=68	=68	=68
1-III	F:sus4	156.122	.	voice	1F- 1a- 1cc-
=69	=69	=69	=69	=69	=69
1iv	G:sus4	158.447	newline	voice	1G 1b- 1dd
=70	=70	=70	=70	=70	=70
1-III	F:sus4	160.761	.	voice	1F- 1a- 1cc-
=71	=71	=71	=71	=71	=71
1iv	G:sus4	163.076	.	voice	1G 1b- 1dd
=72	=72	=72	=72	=72	=72
1-III	F:sus4	165.39	.	voice	1F- 1a- 1cc-
=73	=73	=73	=73	=73	=73
*>B_instrumental	*>B_instrumental	*>B_instrumental	*>B_instrumental	*>B_instrumental	*>B_instrumental
1iv	G:1	167.705	newline	synthesizer	1G 1b- 1dd
=74	=74	=74	=74	=74	=74
1-III	F:1	170.025	.	synthesizer	1F- 1a- 1cc-
=75	=75	=75	=75	=75	=75
1iv	G:1	172.344	.	synthesizer	1G 1b- 1dd
=76	=76	=76	=76	=76	=76
1-III	F:1	174.664	.	synthesizer	1F- 1a- 1cc-
=77	=77	=77	=77	=77	=77
1iv	G:1	176.983	newline	synthesizer	1G 1b- 1dd
=78	=78	=78	=78	=78	=78
1-III	F:1	179.307	.	synthesizer	1F- 1a- 1cc-
=79	=79	=79	=79	=79	=79
1iv	G:1	181.63	.	synthesizer	1G 1b- 1dd
=80	=80	=80	=80	=80	=80
1-III	F:1	183.954	.	synthesizer	1F- 1a- 1cc-
=81	=81	=81	=81	=81	=81
*>B_instrumental	*>B_instrumental	*>B_instrumental	*>B_instrumental	*>B_instrumental	*>B_instrumental
1iv	G:5	186.278	newline	synthesizer	1G 1b- 1dd
=82	=82	=82	=82	=82	=82
1-III	F:5	188.62	.	synthesizer	1F- 1a- 1cc-
=83	=83	=83	=83	=83	=83
1iv	G:5	190.962	.	synthesizer	1G 1b- 1dd
=84	=84	=84	=84	=84	=84
1-III	F:5	193.305	.	synthesizer	1F- 1a- 1cc-
=85	=85	=85	=85	=85	=85
1iv	G:5	195.647	newline	synthesizer	1G 1b- 1dd
=86	=86	=86	=86	=86	=86
1-III	F:5	197.966	.	synthesizer	1F- 1a- 1cc-
=87	=87	=87	=87	=87	=87
2iv	G:5	200.284	.	synthesizer	2G 2b- 2dd
2V	A:5	201.444	.	synthesizer	2A 2cc# 2ee
=88	=88	=88	=88	=88	=88
1-III	F:5	202.603	.	synthesizer	1F- 1a- 1cc-
=89	=89	=89	=89	=89	=89
*>C_instrumental	*>C_instrumental	*>C_instrumental	*>C_instrumental	*>C_instrumental	*>C_instrumental
1iv	G:sus4	204.921	newline	synthesizer	1G 1b- 1dd
=90	=90	=90	=90	=90	=90
1-III	F:sus4	207.241	.	synthesizer	1F- 1a- 1cc-
=91	=91	=91	=91	=91	=91
1iv	G:sus4	209.561	.	synthesizer	1G 1b- 1dd
=92	=92	=92	=92	=92	=92
1-III	F:sus4	211.88	.	synthesizer	1F- 1a- 1cc-
=93	=93	=93	=93	=93	=93
1iv	G:sus4	214.2	newline	synthesizer	1G 1b- 1dd
=94	=94	=94	=94	=94	=94
1-III	F:sus4	216.521	.	synthesizer	1F- 1a- 1cc-
=95	=95	=95	=95	=95	=95
1iv	G:sus4	218.842	.	synthesizer	1G 1b- 1dd
=96	=96	=96	=96	=96	=96
1-III	F:sus4	221.163	.	synthesizer	1F- 1a- 1cc-
=97	=97	=97	=97	=97	=97
*>C_fadeout	*>C_fadeout	*>C_fadeout	*>C_fadeout	*>C_fadeout	*>C_fadeout
1iv	G:sus4	223.484	newline	synthesizer	1G 1b- 1dd
=98	=98	=98	=98	=98	=98
1-III	F:sus4	225.818	.	synthesizer	1F- 1a- 1cc-
=99	=99	=99	=99	=99	=99
1iv	G:sus4	228.152	.	synthesizer	1G 1b- 1dd
=100	=100	=100	=100	=100	=100
1-III	F:sus4	230.485	.	synthesizer	1F- 1a- 1cc-
=101	=101	=101	=101	=101	=101
1iv	G:sus4	232.819	newline	synthesizer	1G 1b- 1dd
=102	=102	=102	=102	=102	=102
1-III	F:sus4	234.725	.	synthesizer	1F- 1a- 1cc-
=103	=103	=103	=103	=103	=103
1iv	G:sus4	236.631	.	synthesizer	1G 1b- 1dd
=104	=104	=104	=104	=104	=104
1-III	F:sus4	238.537	.	synthesizer	1F- 1a- 1cc-
1r;	N	240.443	.	r	1r;
1r;	N	241.136	.	r	1r;
*-	*-	*-	*-	*-	*-
!!!OTL: Burning Down The House
!!!COC: Talking Heads
!!!BillboardChartDate: 1983/08/20
!!!BillboardPeak: 9
!!!BillboardWeeksOnChart: 20
!!!SampleTargetRank: 53
!!!SampleActualRank: 54
!!!SampleID#: 0844
!!!RDF**harmony: **recip + pitch class of root + harmonic quality
!!!RDF**harte: Chris Harte's syntax, used by MIREX
!!!RDF**phrase: newline = linebreak in original McGill transcription
!!!RDF**timestamp: McGill audio timestamp in seconds
!!!RDF**leadinstrument: original McGill primary instrumentation annotation
!!!RDT: 2017/01/12/
!!!ENC: Nathaniel Condit-Schultz
!!!EST: Awating manual error checking and editing.
